source/images/glyphs/medium-dark-theme.svg

<?xml version="1.0" encoding="UTF-8"?>
<svg width="24px" height="24px" viewBox="0 0 24 24" version="1.1" xmlns="http://www.w3.org/2000/svg" xmlns:xlink="http://www.w3.org/1999/xlink">
    <!-- Generator: Sketch 54.1 (76490) - https://sketchapp.com -->
    <title>24px - Medium - White</title>
    <desc>Created with Sketch.</desc>
    <g id="24px---Medium---White" stroke="none" stroke-width="1" fill="none" fill-rule="evenodd">
        <g id="Iconography-/-Small-/-Medium-/-White" fill="#FFFFFF">
            <g id="Group">
                <path d="M1,1 L23,1 L23,23 L1,23 L1,1 Z M6.2499988,8.35767497 L6.2499988,14.8899893 C6.29019715,15.1256342 6.21591367,15.366347 6.04990304,15.5383922 L4.4974359,17.4215198 L4.4974359,17.6698443 L8.89954272,17.6698443 L8.89954272,17.4215198 L7.34707558,15.5383922 C7.17984737,15.3666318 7.10096416,15.1275052 7.1331801,14.8899893 L7.1331801,9.24060659 L10.9970983,17.6698443 L11.4455888,17.6698443 L14.7644186,9.24060659 L14.7644186,15.9591643 C14.7644186,16.1385098 14.7644186,16.1729993 14.6471211,16.2902637 L13.4534464,17.4491114 L13.4534464,17.6974359 L19.2493237,17.6974359 L19.2493237,17.4491114 L18.0970481,16.3178553 C17.9953299,16.2403197 17.9448725,16.1128847 17.9659509,15.9867559 L17.9659509,7.67478256 C17.9448725,7.54865383 17.9953299,7.42121871 18.0970481,7.3436832 L19.2769231,6.21242708 L19.2769231,5.96410256 L15.1922096,5.96410256 L12.2804712,13.2275946 L8.96854126,5.96410256 L4.68373195,5.96410256 L4.68373195,6.21242708 L6.06370275,7.87482174 C6.19917538,7.99692863 6.26836119,8.1762485 6.2499988,8.35767497 Z" id="Medium-/-White" fill-rule="nonzero"></path>
            </g>
        </g>
    </g>
</svg>

<svg width="24" height="24" xmlns="http://www.w3.org/2000/svg"><path d="M1 1h22v22H1V1zm5.25 7.358v6.532a.752.752 0 0 1-.2.648l-1.553 1.884v.248H8.9v-.248l-1.553-1.884a.78.78 0 0 1-.214-.648V9.24l3.864 8.43h.449l3.318-8.43v6.72c0 .179 0 .213-.117.33l-1.194 1.16v.247h5.796v-.248l-1.152-1.131a.345.345 0 0 1-.131-.331V7.675a.345.345 0 0 1 .131-.331l1.18-1.132v-.248h-4.085l-2.912 7.264L8.97 5.964H4.684v.248l1.38 1.663a.572.572 0 0 1 .186.483z" fill-rule="nonzero" fill="#FFF"/></svg>
